X:1
T:Chongqing, 76.76 D
T:Chongqing, 76.76 D
T:N. E. Byers, 1890
T:Public Domain Courtesy of the Cyber Hymnal™
C:N. E. Byers, 1890
Z:Public Domain
Z:Courtesy of the Cyber Hymnal™
%%score ( 1 2 ) ( 3 4 )
L:1/8
Q:1/4=105
M:6/8
K:Bb
V:1 treble 
V:2 treble 
V:3 bass 
V:4 bass 
V:1
 [DF] | [DF]2 [DF] (FG)[EA] | [DB]3 [DF]2 [DB] | [EA]2 [EG] [EA]2 [EF] | [DB]3- [DB]2 [DB] | %5
 [Ec]2 [Ec] (AG)[EF] | [DB]3 [Fd]2 [Ge] | [Fd]2 [DB] ([Ec][Fd])[Ec] | [DB]3- [DB]2 [DB] | %9
 [Ec]2 [Ec] ([Ec][Fd])[Ec] | [DB]2 [Fd] [DF]2 [FB] | [EA]2 [EA] (AG)[EA] | [DB]3- [DB]2 [DF] | %13
 [EG]2 [EG] ([GB][FA])[EG] | F2 B [DF]2 [Ge] | [Fd]2 [DB] ([Ec]!fermata![Fd])[Ec] | B3- [DB]2 |] %17
V:2
 x | x3 E2 x | x6 | x6 | x6 | x3 E2 x | x6 | x6 | x6 | x6 | x6 | x3 E2 x | x6 | x6 | D3 x3 | x6 | %16
 D2 E x2 |] %17
V:3
 [B,,B,] | [B,,B,]2 [B,,B,] [F,C]2 [F,C] | [B,,B,]3 [B,,B,]2 [B,,B,] | [F,C]2 [F,C] [F,C]2 [F,C] | %4
 [B,,B,]3- [B,,B,]2 [B,,B,] | [F,A,]2 [F,A,] [F,C]2 [F,C] | [B,,B,]3 [B,,B,]2 [E,B,] | %7
 [F,B,]2 [F,B,] [F,A,]2 [F,A,] | [B,,B,]3- [B,,B,]2 [B,,F,] | [F,A,]2 [F,A,] [F,A,]2 [F,A,] | %10
 [B,,B,]3 [B,,B,]2 [D,B,] | [F,C]2 [F,C] [F,C]2 [F,C] | [B,,B,]3- [B,,B,]2 [B,,B,] | %13
 [E,B,]2 [E,B,] [E,B,]2 [E,B,] | [B,,B,]3 [B,,B,]2 [E,B,] | [F,B,]2 [F,B,] [F,A,]2 [F,A,] | %16
 (B,2 G, [B,,F,]2) |] %17
V:4
 x | x6 | x6 | x6 | x6 | x6 | x6 | x6 | x6 | x6 | x6 | x6 | x6 | x6 | x6 | x6 | B,,3- x2 |] %17

